X:1306
T:Cottage in the Grove, The
O:england
M:C|
R:Reel
K:G
DG G2 DGBG|c2 BG AGEG|DGGF GABd|g2 dg edge|\
dBB2 GBdB|cEE2 GEDB,|DEGA B2 ed|dBAc BG G2::\
Bdd^c d2ef|g2bg abge|dBB2 GBdB|cEE2 GEDB,|\
Bdd^c d2ef|g2 bg abge|DEGA B2ed|dBAc BGG2:|
